static/img/kroki/e1b77897f14fb8b8adcdbb090c8476c1.svg

<?xml version="1.0" encoding="us-ascii" standalone="no"?><svg xmlns="http://www.w3.org/2000/svg" xmlns:xlink="http://www.w3.org/1999/xlink" contentStyleType="text/css" height="374px" preserveAspectRatio="none" style="width:265px;height:374px;" version="1.1" viewBox="0 0 265 374" width="265px" zoomAndPan="magnify"><defs/><g><!--class aws_opensearch_domain--><g id="elem_aws_opensearch_domain"><rect codeLine="23" fill="#3D176E" height="39.7891" id="aws_opensearch_domain" rx="2.5" ry="2.5" style="stroke:#000D19;stroke-width:0.5;" width="251" x="7" y="328.58"/><ellipse cx="22" cy="348.4745" fill="#ADD1B2" rx="11" ry="11" style="stroke:#181818;stroke-width:1.0;"/><path d="M24.9688,354.1152 Q24.3906,354.412 23.75,354.5527 Q23.1094,354.7089 22.4063,354.7089 Q19.9063,354.7089 18.5781,353.0683 Q17.2656,351.412 17.2656,348.287 Q17.2656,345.162 18.5781,343.5058 Q19.9063,341.8495 22.4063,341.8495 Q23.1094,341.8495 23.75,342.0058 Q24.4063,342.162 24.9688,342.4589 L24.9688,345.1777 Q24.3438,344.5995 23.75,344.3339 Q23.1563,344.0527 22.5313,344.0527 Q21.1875,344.0527 20.5,345.1308 Q19.8125,346.1933 19.8125,348.287 Q19.8125,350.3808 20.5,351.4589 Q21.1875,352.5214 22.5313,352.5214 Q23.1563,352.5214 23.75,352.2558 Q24.3438,351.9745 24.9688,351.3964 L24.9688,354.1152 Z " fill="#000000"/><text fill="#D9B8FF" font-family="Helvetica" font-size="17" lengthAdjust="spacing" textLength="209" x="41" y="354.3598">aws_opensearch_domain</text></g><!--class aws_resource--><g id="elem_aws_resource"><rect codeLine="26" fill="#3D176E" height="39.7891" id="aws_resource" rx="2.5" ry="2.5" style="stroke:#000D19;stroke-width:0.5;" width="155" x="55" y="167.79"/><ellipse cx="70" cy="187.6845" fill="#ADD1B2" rx="11" ry="11" style="stroke:#181818;stroke-width:1.0;"/><path d="M72.9688,193.3252 Q72.3906,193.622 71.75,193.7627 Q71.1094,193.9189 70.4063,193.9189 Q67.9063,193.9189 66.5781,192.2783 Q65.2656,190.622 65.2656,187.497 Q65.2656,184.372 66.5781,182.7158 Q67.9063,181.0595 70.4063,181.0595 Q71.1094,181.0595 71.75,181.2158 Q72.4063,181.372 72.9688,181.6689 L72.9688,184.3877 Q72.3438,183.8095 71.75,183.5439 Q71.1563,183.2627 70.5313,183.2627 Q69.1875,183.2627 68.5,184.3408 Q67.8125,185.4033 67.8125,187.497 Q67.8125,189.5908 68.5,190.6689 Q69.1875,191.7314 70.5313,191.7314 Q71.1563,191.7314 71.75,191.4658 Q72.3438,191.1845 72.9688,190.6064 L72.9688,193.3252 Z " fill="#000000"/><text fill="#D9B8FF" font-family="Helvetica" font-size="17" lengthAdjust="spacing" textLength="113" x="89" y="193.5698">aws_resource</text></g><!--class resource--><g id="elem_resource"><rect codeLine="29" fill="#3D176E" height="39.7891" id="resource" rx="2.5" ry="2.5" style="stroke:#000D19;stroke-width:0.5;" width="113" x="76" y="7"/><ellipse cx="91" cy="26.8945" fill="#ADD1B2" rx="11" ry="11" style="stroke:#181818;stroke-width:1.0;"/><path d="M93.9688,32.5352 Q93.3906,32.832 92.75,32.9727 Q92.1094,33.1289 91.4063,33.1289 Q88.9063,33.1289 87.5781,31.4883 Q86.2656,29.832 86.2656,26.707 Q86.2656,23.582 87.5781,21.9258 Q88.9063,20.2695 91.4063,20.2695 Q92.1094,20.2695 92.75,20.4258 Q93.4063,20.582 93.9688,20.8789 L93.9688,23.5977 Q93.3438,23.0195 92.75,22.7539 Q92.1563,22.4727 91.5313,22.4727 Q90.1875,22.4727 89.5,23.5508 Q88.8125,24.6133 88.8125,26.707 Q88.8125,28.8008 89.5,29.8789 Q90.1875,30.9414 91.5313,30.9414 Q92.1563,30.9414 92.75,30.6758 Q93.3438,30.3945 93.9688,29.8164 L93.9688,32.5352 Z " fill="#000000"/><text fill="#D9B8FF" font-family="Helvetica" font-size="17" lengthAdjust="spacing" textLength="71" x="110" y="32.7798">resource</text></g><!--reverse link aws_resource to aws_opensearch_domain--><g id="link_aws_resource_aws_opensearch_domain"><path codeLine="32" d="M132.5,225.84 C132.5,256.36 132.5,297.69 132.5,328.25 " fill="none" id="aws_resource-backto-aws_opensearch_domain" style="stroke:#FFAF37;stroke-width:2.0;"/><polygon fill="none" points="132.5,207.84,126.5,225.84,138.5,225.84,132.5,207.84" style="stroke:#FFAF37;stroke-width:2.0;"/></g><!--reverse link resource to aws_resource--><g id="link_resource_aws_resource"><path codeLine="33" d="M132.5,65.05 C132.5,95.57 132.5,136.9 132.5,167.46 " fill="none" id="resource-backto-aws_resource" style="stroke:#FFAF37;stroke-width:2.0;"/><polygon fill="none" points="132.5,47.05,126.5,65.05,138.5,65.05,132.5,47.05" style="stroke:#FFAF37;stroke-width:2.0;"/></g><!--SRC=[XT1DRuCm30RWUtv5f9wHODL6aNPfaQRjKathxfKXJec013bXgFluxnlhEgL0swlzo7xjGWdaM3TkpskiCoJBRAbq0mGrNnAPBZML8JwJ4kGy7ZOVZ7PNmHfgv8zOlQ5JEGp5Qw7oKgEr_CPhhI0lTsHQBGxZ7O6sFotKpbDf1TOkdIELjGwzC2B95b8EvN3eR2wY-0v7p910-YDX68ee6PAhgoxU_IyswXrvv3zjRHoEOevM_AgBANlXXHmTUkoVpVWCGYYzuxTUxUMGYJJIINrJW31ThoLKrbzZ7H8Qjsym7Ls5oKB8U18_dSCixr_7eRDRqw2s29GNMs5gK9f_CFRb0K9hMihHhv_MJjJzPn04qvFP13gMs3S0]--></g></svg>

<svg xmlns="http://www.w3.org/2000/svg" width="265" height="374" viewBox="0 0 265 374"><rect width="251" height="39.789" x="7" y="328.58" fill="#3D176E" rx="2.5" ry="2.5" style="stroke:#000d19;stroke-width:.5"/><circle cx="22" cy="348.474" r="11" fill="#ADD1B2" style="stroke:#181818;stroke-width:1"/><path d="M24.969 354.115q-.578.297-1.219.438-.64.156-1.344.156-2.5 0-3.828-1.64-1.312-1.657-1.312-4.782t1.312-4.781q1.328-1.656 3.828-1.656.703 0 1.344.156.656.156 1.219.453v2.719q-.625-.579-1.219-.844-.594-.281-1.219-.281-1.343 0-2.031 1.078-.687 1.062-.687 3.156t.687 3.172q.688 1.062 2.031 1.062.625 0 1.219-.265.594-.281 1.219-.86z"/><text x="41" y="354.36" fill="#D9B8FF" font-family="Helvetica" font-size="17" textLength="209">aws_opensearch_domain</text><rect width="155" height="39.789" x="55" y="167.79" fill="#3D176E" rx="2.5" ry="2.5" style="stroke:#000d19;stroke-width:.5"/><circle cx="70" cy="187.685" r="11" fill="#ADD1B2" style="stroke:#181818;stroke-width:1"/><path d="M72.969 193.325q-.578.297-1.219.438-.64.156-1.344.156-2.5 0-3.828-1.64-1.312-1.657-1.312-4.782t1.312-4.781q1.328-1.656 3.828-1.656.703 0 1.344.156.656.156 1.219.453v2.719q-.625-.578-1.219-.844-.594-.281-1.219-.281-1.344 0-2.031 1.078-.687 1.062-.687 3.156t.687 3.172q.688 1.062 2.031 1.062.625 0 1.219-.265.594-.281 1.219-.86z"/><text x="89" y="193.57" fill="#D9B8FF" font-family="Helvetica" font-size="17" textLength="113">aws_resource</text><rect width="113" height="39.789" x="76" y="7" fill="#3D176E" rx="2.5" ry="2.5" style="stroke:#000d19;stroke-width:.5"/><circle cx="91" cy="26.895" r="11" fill="#ADD1B2" style="stroke:#181818;stroke-width:1"/><path d="M93.969 32.535q-.578.297-1.219.438-.64.156-1.344.156-2.5 0-3.828-1.64-1.312-1.657-1.312-4.782t1.312-4.781q1.328-1.656 3.828-1.656.703 0 1.344.156.656.156 1.219.453v2.719q-.625-.578-1.219-.844-.594-.281-1.219-.281-1.344 0-2.031 1.078-.687 1.062-.687 3.156t.687 3.172q.688 1.062 2.031 1.062.625 0 1.219-.265.594-.281 1.219-.86z"/><text x="110" y="32.78" fill="#D9B8FF" font-family="Helvetica" font-size="17" textLength="71">resource</text><path fill="none" d="M132.5 225.84v102.41m0-120.41-6 18h12zm0-142.79v102.41m0-120.41-6 18h12z" style="stroke:#ffaf37;stroke-width:2"/></svg>
